!!!COM: Corelli, Arcangelo
!!!OPR: Sonata da camera
!!!OPS: 4
!!!ONM: 6
!!!OMV: 2
!!!OMD: Allegro
**kern	**fb	**kern	**kern
*part3	*part3	*part2	*part1
*staff3	*	*staff2	*staff1
*I"Violone & Cembalo	*	*I"Violino II	*I"Violino I
*clefF4	*	*clefG2	*clefG2
*k[f#c#g#]	*	*k[f#c#g#]	*k[f#c#g#]
*M3/4	*	*M3/4	*M3/4
=1	=1	=1	=1
!	!	!	!LO:TX:a:t=Allegro
2.r	.	2.r	8eeL
.	.	.	8bJ
.	.	.	8eeL
.	.	.	8gg#J
.	.	.	8ff#L
.	.	.	8bbJ
=2	=2	=2	=2
2.r	.	8eeL	8gg#L
.	.	8bJ	8bbJ
.	.	8eeL	8gg#L
.	.	8gg#J	8eeJ
.	.	8ff#L	8dd#XL
.	.	8bbJ	8bJ
=3	=3	=3	=3
8EL	.	8gg#L	4ee
8BBJ	.	8bbJ	.
8EL	.	8gg#L	4b
8G#J	.	8eeJ	.
8F#L	#6|	8dd#XL	4f#
8BJ	.	8bJ	.
=4	=4	=4	=4
4G#	6	4ee	8g#L
.	.	.	8bJ
4GG#	.	4b	8eeL
.	.	.	8g#J
4BB	#	4f#	8f#L
.	.	.	8dd#XJ
=5	=5	=5	=5
4E	.	8g#L	2e
.	.	8bJ	.
4GG#	6	8eeL	.
.	.	8g#J	.
4BB	#	8f#L	4r
.	.	8dd#XJ	.
=6	=6	=6	=6
2EE	.	2e	8g#L
.	.	.	8bJ
.	.	.	8eeL
.	.	.	8gg#J
4E	.	4r	8bbL
.	.	.	8gg#J
=7	=7	=7	=7
2D#X	6	8bL	2ff#
.	.	8f#J	.
.	.	8bL	.
.	.	8dd#XJ	.
4D#	.	8cc#L	4r
.	.	8bJ	.
=8	=8	=8	=8
2C#	7	2ee	8eeL
.	.	.	8gg#J
.	.	.	8cc#L
.	.	.	8eeJ
4F#	#	4r	8a#XL
.	.	.	8ff#J
=9	=9	=9	=9
2BB	#	8ff#L	2dd#X
.	.	8bJ	.
.	.	8dd#XL	.
.	.	8ff#J	.
4D#X	6	8bL	4r
.	.	8dd#J	.
=10	=10	=10	=10
2E	.	2g#	8bbL
.	.	.	8gg#J
.	.	.	8eeL
.	.	.	8gg#J
4E	6	4r	8cc#L
.	.	.	8eeJ
=11	=11	=11	=11
2F#	#	8a#XL	4.a#X
.	.	8cc#J	.
.	.	8ff#L	.
.	.	8aa#XJ	8ff#
4D#X	6	8ff#L	8bbL
.	.	8dd#XJ	8ff#J
=12	=12	=12	=12
2E	5	8bL	4.gg#
.	.	8eeJ	.
.	.	8gg#L	.
.	.	8bbJ	8gg#
4E	6	8gg#L	8ccc#L
.	.	8eeJ	8gg#J
=13	=13	=13	=13
2F#	#	4.cc#	4.aa#X
.	.	8cc#	8ff#
4D#X	6	4ff#	8bbL
.	.	.	8dd#XJ
=14	=14	=14	=14
4E	6 5	4b	8gg#L
.	.	.	8cc#J
4F#	5 4	4.b	4.cc#
4FF#	#	.	.
.	.	8a#X	8cc#
=15	=15	=15	=15
2.BB	#	2b	8dd#XL
.	.	.	8bJ
.	.	.	8dd#L
.	.	.	8ff#J
.	.	4r	8bbL
.	.	.	8ff#J
=16	=16	=16	=16
2.BB	#	8ff#L	2dd#X
.	.	8bJ	.
.	.	8dd#XL	.
.	.	8ff#J	.
.	.	8bbL	4r
.	.	8ff#J	.
=17	=17	=17	=17
2.E	.	2gg#	8eeL
.	.	.	8eJ
.	.	.	8g#L
.	.	.	8bJ
.	.	4r	8eeL
.	.	.	8bJ
=18	=18	=18	=18
2.E	.	8eeL	2g#
.	.	8eJ	.
.	.	8g#L	.
.	.	8bJ	.
.	.	8eeL	4r
.	.	8bJ	.
=19	=19	=19	=19
2A	.	4.cc#	8eeL
.	.	.	8aJ
.	.	.	8cc#L
.	.	8cc#	8eeJ
4AA	6	8aL	[4ff#
.	.	8cc#J	.
=20	=20	=20	=20
2BB	#	4.dd#X	8ff#L]
.	.	.	8bJ
.	.	.	8dd#XL
.	.	8dd#	8ff#J
4BB	6	8bL	[4gg#
.	.	8dd#J	.
=21	=21	=21	=21
2C#	56	4.ee	8gg#L]
.	.	.	8eeJ
.	.	.	4.aa
.	.	8cc#	.
[4D#X	5	[4ff#	.
.	.	.	8ff#
=22	=22	=22	=22
4D#]	6	8ff#L]	4.bb
.	.	8dd#XJ	.
2E	56	4.gg#	.
.	.	.	8gg#
.	.	.	8eeL
.	.	8gg#	8gg#J
=23	=23	=23	=23
2F#	#	2a#X	2cc#
4r	.	4r	4r
=||	=||	=||	=||
*-	*-	*-	*-
!!!system-decoration: [{s1,s2},s3,s4]
!!!YEM: CC BY-NC-SA 4.0; CCARH; DCML